!!!!SEGMENT: pl-kk--kk-i-382--066_anonim--offertorium-nro-21.krn
!!!cenid: 18xx:1582
!!!COM: Anonim
!!!COM-rismID: pe30004985
!!!CDT:
!!!CNT:
!!!OTL: Offertorium Nro 21
!!!PDT:
!!!AGN: Sacred
!!!SMS-siglum: PL-Kk
!!!SMS-shelfmark: Kk.I.382
!!!SMS-shelfwork: 066 W
!!!SMS-variant:
!!!SMS-altvar:
!!!NIFC-rismSourceID: 1001139027
!!!NIFC-rismChildID: 1001142270
!!!NIFC-islandoraID: pl-kk:6162
!!!URL-pdf-islandora: https://repozytorium.nifc.pl/islandora/object/pl-kk%3A6162/datastream/PDF/view
!!!URL-scan: https://polish.musicsources.pl/pl/lokalizacje/galeria/rekopisy/5994 @EN{Scan on Polish Music Sources Website} @PL{Skany w portalu Dziedzictwo Muzyki Polskiej w otwartym dostępie}
!!!IIIF:
!!!ONB-nifc: UWAGA: Offertoria od skanu 0041 (S/T1), 0113 (T2), 0185 (A/B1), 0262 (B2)
!!!ONB-nifc: UWAGA: obsada: S/T1, A/B1, T2, B2. Skany 0048, 0194, 0121-0122, 0270-0271
!!!AIN: 1 alto 1 bass 2 tenor
!!!key:
**kern	**text	**kern	**text	**kern	**text	**kern	**text
*part4	*part4	*part3	*part3	*part2	*part2	*part1	*part1
*staff4	*staff4	*staff3	*staff3	*staff2	*staff2	*staff1	*staff1
*Ibass	*	*Itenor	*	*Ialto	*	*Itenor	*
*I"Basso II	*	*I"Tenore II	*	*I"Alto vel Basso I	*	*I"Soprano vel Tenore I.	*
*I'B II	*	*I'T II	*	*I'A vel B I	*	*I'S vel T I	*
*clefF4	*	*clefC4	*	*clefC3	*	*clefC1	*
*k[]	*	*k[]	*	*k[]	*	*k[]	*
*C:	*	*C:	*	*C:	*	*C:	*
*M3/4	*	*M3/4	*	*M3/4	*	*M3/4	*
=1	=1	=1	=1	=1	=1	=1	=1
*all\right	*	*all\right	*	*all\right	*	*all\right	*
*	*	*	*	*2\right	*	*2\right	*
!	!	!LO:TX:a:t=4.	!	!	!	!	!
!	!	!LO:N:vis=00	!	!	!	!	!
!LO:TX:a:t=Nro 21.	!	!LO:TX:a:t=Nro 21.	!	!LO:TX:a:t=Nro 21.	!	!LO:TX:a:t=Nro 21.	!
2C/	Ve-	0.r	.	2e\	Ve-	2cc\	Ve-
4c\	-ni	.	.	4g\	-ni	4ee\	-ni
=2	=2	=2	=2	=2	=2	=2	=2
4r	.	.	.	(4g\	ve-	(4ee\	ve-
4r	.	.	.	4f\)	.	4dd\)	.
(4C/	San-	.	.	4e\	-ni	4cc\	-ni
=3	=3	=3	=3	=3	=3	=3	=3
*2\right	*	*	*	*	*	*	*
2G\)	.	.	.	2d\	san-	2b\	san-
4GG/	-cte	.	.	4f\	-cte	4dd\	-cte
=4	=4	=4	=4	=4	=4	=4	=4
4C/	spi-	.	.	8.f\	spi-	8.dd\	spi-
.	.	.	.	16e\	-ri-	16cc\	-ri-
4E/	-ri-	.	.	2e\	-tus	2cc\	-tus
4C/	-tus	.	.	.	.	.	.
=5	=5	=5	=5	=5	=5	=5	=5
4F\	re-	4c\	Re-	4f\	re-	4a\	re-
4A\	-ple	4c\	-ple	4f\	-ple	4a\	-ple
4F\	tu-	4c\	tu-	4f\	tu-	4a\	tu-
=6	=6	=6	=6	=6	=6	=6	=6
4C/	-o-	4c\	-o-	(8f\L	-o-	(8a\L	-o-
.	.	.	.	8e\J)	.	8g\J)	.
*	*	*2\right	*	*	*	*	*
2C/	-rum	2c\	-rum	2e\	-rum	2g\	-rum
!LO:LB:g=original	!	!	!	!LO:LB:g=original	!	!LO:LB:g=original	!
=7	=7	=7	=7	=7	=7	=7	=7
4BB/	re-	4G\	re-	4d\	re-	4g\	re-
4GG/	-ple	4B\	-ple	4g\	-ple	4ff\	-ple
4BB/	tu-	4d\	tu-	4g\	tu-	4ff\	tu-
=8	=8	=8	=8	=8	=8	=8	=8
4C/	-o-	(8d\L	-o-	4g\	-o-	(8ff\L	-o-
.	.	8c\J)	.	.	.	8ee\J)	.
2C/	-rum	2c\	-rum	2g\	-rum	2ee\	-rum
=9	=9	=9	=9	=9	=9	=9	=9
2F\	cor-	2c\	cor-	2a\	cor-	2dd\	cor-
4F\	-da	4c\	-da	4a\	-da	4dd\	-da
=10	=10	=10	=10	=10	=10	=10	=10
4F#X\	cor-	4c\	cor-	4a\	cor-	4dd\	cor-
4F#\	-da	4A\	-da	4a\	-da	4ee\	-da
4F#\	fi-	4d\	fi-	4a\	fi-	4cc\	fi-
!	!	!LO:LB:g=original	!	!	!	!	!
=11	=11	=11	=11	=11	=11	=11	=11
8.G\	-de-	8.d\	-de-	8.g\	-de-	8.b\	-de-
16G\	-li-	16G/	-li-	16a\	-li-	16cc\	-li-
4G\	-um	4G/	-um	4b\	-um	4dd\	-um
8r	.	8r	.	8r	.	8r	.
8G\	et	8B\	et	8g\	et	8dd\	et
=12	=12	=12	=12	=12	=12	=12	=12
4G#X\	tu-	4B\	tu-	4e\	tu-	4dd\	tu-
4G#\	-i	4B\	-i	4e\	-i	4ee\	-i
4G#\	a-	4B\	a-	4e\	a-	4dd\	a-
!LO:LB:g=original	!	!	!	!	!	!LO:LB:g=original	!
=13	=13	=13	=13	=13	=13	=13	=13
4A\	-mo-	4A\	-mo-	4e\	-mo-	(8dd\L	-mo-
.	.	.	.	.	.	8cc#X\J)	.
4A\	-ris	4A\	-ris	4.e\	-ris	4.cc#\	-ris
4Gn\	a-	4e\	et	.	.	.	.
.	.	.	.	8a\	et	8cc#\	et
!	!	!	!	!LO:LB:g=original	!	!	!
=14	=14	=14	=14	=14	=14	=14	=14
4F#X\	-mo-	4d\	tu-	4a\	tu-	4ccn\	tu-
4F#\	-ris	4d\	-i	4a\	-i	4dd\	-i
4F#\	a-	4d\	a-	4a\	a-	4cc\	a-
=15	=15	=15	=15	=15	=15	=15	=15
!LO:N:vis=4.	!	!	!	!	!	!	!
4G\	-mo-	4d\	-mo-	(8a\L	-mo-	(8cc\L	-mo-
.	.	.	.	8g\J)	.	8b\J)	.
4G\	-ris	4d\	-ris	4g\	-ris	4b\	-ris
8r	.	8r	.	8r	.	8r	.
8Fn\	in	8d\	in	8g\	in	8b\	in
=16	=16	=16	=16	=16	=16	=16	=16
4E\	e-	2c\	e-	2g\	e-	2cc\	e-
(4.C/	-is	.	.	.	.	.	.
.	.	4G/	-is	4g\	-is	4dd\	-is
8BB/)	.	.	.	.	.	.	.
=17	=17	=17	=17	=17	=17	=17	=17
4C/	i-	4c\	i-	4g\	i-	4ee\	i-
!	!	!	!	!	!	!LO:N:vis=4.	!
4C/	-gnem	4A\	-gnem	4a\	-gnem	4ee\	-gnem
4c\	ac-	4d\	ac-	4a\	ac-	4ff#X\	ac-
!	!	!LO:LB:g=original	!	!	!	!	!
=18	=18	=18	=18	=18	=18	=18	=18
4B\	-cen-	4d\	-cen-	4g\	-cen-	4gg\	-cen-
2G\	-de	2B\	-de	2g\	-de	2dd\	-de
!LO:LB:g=original	!	!	!	!	!	!LO:LB:g=original	!
=19	=19	=19	=19	=19	=19	=19	=19
4c\	ac-	4e\	ac-	4a\	ac-	(8dd\L	ac-
.	.	.	.	.	.	8cc\J)	.
4d\	-cen-	4d\	-cen-	4g\	-cen-	4b\	-cen-
4c\	-de	4d\	-de	4f#X\	-de	4a\	-de
=20	=20	=20	=20	=20	=20	=20	=20
(4B\	i-	(4d\	i-	2g\	i-	2dd\	i-
4G\)	.	4B\)	.	.	.	.	.
4B\	-gnem	4G/	-gnem	4g\	-gnem	4dd#X\	-gnem
!	!	!	!	!LO:LB:g=original	!	!	!
=21	=21	=21	=21	=21	=21	=21	=21
(4c\	i-	2c\	i-	(4g\	i-	(4ee\	i-
4A\)	.	.	.	4cc\)	.	4ff#X\)	.
4B\	-gnem	4d\	-gnem	4b\	-gnem	4gg\	-gnem
=22	=22	=22	=22	=22	=22	=22	=22
4c\	ac-	4e\	ac-	4a\	ac-	(8dd\L	ac-
.	.	.	.	.	.	8cc\J)	.
(4d\	-cen-	(4.d\	-cen-	(4g\	-cen-	(4b\	-cen-
4D/)	.	.	.	4f#X\)	.	4a\)	.
.	.	8c\)	.	.	.	.	.
=23	=23	=23	=23	=23	=23	=23	=23
4G\	-de	4B\	-de	4g\	-de	4g\	-de
2G\	et	4r	.	2b\	et	2dd\	et
.	.	4r	.	.	.	.	.
=24	=24	=24	=24	=24	=24	=24	=24
!	!	!LO:TX:a:t=5.	!	!	!	!	!
!	!	!LO:N:vis=00	!	!	!	!	!
4GG/	tu-	0.r	.	4cc\	tu-	4ee\	tu-
4G\	-i	.	.	4b\	-i	4dd\	-i
4r	.	.	.	4a\	a-	4cc\	a-
=25	=25	=25	=25	=25	=25	=25	=25
4G\	a-	.	.	4b\	-mo-	4dd\	-mo-
4G\	-mo-	.	.	4g\	-ris	4b\	-ris
!	!	!	!	!	!	!LO:LB:g=original	!
4G\	-ris	.	.	4b\	et	(8gg\L	et
.	.	.	.	.	.	8ff#X\J)	.
!LO:LB:g=original	!	!	!	!	!	!	!
=26	=26	=26	=26	=26	=26	=26	=26
4G\	A-	.	.	4cc\	tu-	4ee\	tu-
4G\	-mo-	.	.	4cc\	-i	4ee\	-i
4G\	-ris	.	.	4a\	a-	4ff#X\	a-
=27	=27	=27	=27	=27	=27	=27	=27
4GG/	tu-	.	.	4b\	-mo-	4gg\	-mo-
4G\	-i	.	.	4b\	-ris	4dd\	-ris
!	!	!	!	!LO:LB:g=original	!	!	!
4G\	a-	.	.	8r	.	8r	.
.	.	.	.	8b\	et	8dd\	et
=28	=28	=28	=28	=28	=28	=28	=28
4GG/	-mo-	2.r	.	4cc\	tu-	4ee\	tu-
4G\	-ris	.	.	4b\	-i	4dd\	-i
4r	.	.	.	4a\	a-	4cc\	a-
=29	=29	=29	=29	=29	=29	=29	=29
4r	.	4r	.	4b\	-mo-	4dd\	-mo-
4r	.	4r	.	4g\	-ris	(8b\L	-ris
.	.	.	.	.	.	8cc\J)	.
4G\	et	(8B\L	et	4g\	et	(8dd\L	et
.	.	8c\J)	.	.	.	8ee\J)	.
=30	=30	=30	=30	=30	=30	=30	=30
4BB/	tu-	4d\	tu-	4g\	tu-	4ffn\	tu-
4B\	-i	4d\	-i	4g\	-i	4ff\	-i
4c\	a-	4c\	a-	4g\	a-	4ee\	a-
!	!	!LO:LB:g=original	!	!	!	!	!
=31	=31	=31	=31	=31	=31	=31	=31
4G\	-mo-	4c\	-mo-	4g\	-mo-	4ee\	-mo-
4GG/	-ris	4B\	-ris	4g\	-ris	4dd\	-ris
4r	.	4r	.	8r	.	8r	.
.	.	.	.	8fn\	in	8b\	in
!	!	!	!	!	!	!LO:LB:g=original	!
=32	=32	=32	=32	=32	=32	=32	=32
!	!	!LO:TX:a:t=3.	!	!	!	!	!
!	!	!LO:N:vis=0	!	!	!	!	!
4C/	in	1.r	.	2e\	e-	2cc\	e-
4C/	e-	.	.	.	.	.	.
4c\	-is	.	.	4g\	-is	4ee\	-is
!LO:LB:g=original	!	!	!	!	!	!	!
=33	=33	=33	=33	=33	=33	=33	=33
4c\	i-	.	.	4g\	i-	4ee\	i-
4C/	-gnem	.	.	4f\	-gnem	4dd\	-gnem
4C/	ac-	.	.	4e\	ac-	4cc\	ac-
!	!	!	!	!LO:LB:g=original	!	!	!
=34	=34	=34	=34	=34	=34	=34	=34
4G\	-cen-	2.r	.	4d\	-cen-	4b\	-cen-
4G\	-de	.	.	(8d\L	-de	(8b\L	-de
.	.	.	.	8e\J)	.	8cc\J)	.
4GG/	ac-	.	.	4f\	ac-	4dd\	ac-
=35	=35	=35	=35	=35	=35	=35	=35
4C/	-cen-	4r	.	(8f\L	-cen-	(8dd\L	-cen-
.	.	.	.	8e\J)	.	8cc\J)	.
4E\	-de	4r	.	4e\	-de	4cc\	-de
4G\	in	4c\	in	4r	.	8r	.
.	.	.	.	.	.	8ee\	in
=36	=36	=36	=36	=36	=36	=36	=36
!	!	!	!	!LO:TX:a:t=4.	!	!	!
!	!	!	!	!LO:N:vis=00	!	!	!
4C/	e-	2c\	e-	0.r	.	2ee\	e-
4C/	-is	.	.	.	.	.	.
4c\	ac-	4e\	-is	.	.	4gg\	-is
=37	=37	=37	=37	=37	=37	=37	=37
(4c\	-cen-	4e\	i-	.	.	4gg\	i-
4C/)	.	4d\	-gnem	.	.	4ff\	-gnem
!LO:TX:b:t=V&colon; S&colon;	!	!	!	!	!	!	!
4C/	-de,	4c\	ac-	.	.	4ee\	ac-
!LO:PB:g=original	!	!	!	!	!	!LO:LB:g=original	!
=38	=38	=38	=38	=38	=38	=38	=38
4G\	in	4B\	-cen-	.	.	4dd\	-cen-
4G\	e-	(8B\L	-de	.	.	(8dd\L	-de
.	.	8c\J)	.	.	.	8ee\J)	.
4GG/	-is	4d\	ac-	.	.	4ff\	ac-
=39	=39	=39	=39	=39	=39	=39	=39
4C/	ac-	(8d\L	-cen-	.	.	(8ff\L	-cen-
.	.	8c\J)	.	.	.	8ee\J)	.
4E\	-cen-	4c\	-de	.	.	2ee\	-de
4C/	-de	4r	.	.	.	.	.
=40	=40	=40	=40	=40	=40	=40	=40
2F\	al-	2c\	al-	2a\	Al-	2ff\	Al-
4F\	-le-	4c\	-le-	(8a\L	-le-	4a\	-le-
.	.	.	.	8f\J)	.	.	.
=41	=41	=41	=41	=41	=41	=41	=41
2C/	-lu-	4c\	-lu-	(8f\L	-lu-	(8a\L	-lu-
.	.	.	.	8e\J)	.	8g\J)	.
.	.	2c\	-ja	2e\	-ja	2g\	-ja
4C/	-ja	.	.	.	.	.	.
=42	=42	=42	=42	=42	=42	=42	=42
(>4BB/	al-	(4d\	al-	2g\	al-	2g\	al-
4GG/)	.	4B\)	.	.	.	.	.
4BB/	-le-	4d\	-le-	4g\	-le-	4ff\	-le-
!	!	!LO:LB:g=original	!	!	!	!	!
=43	=43	=43	=43	=43	=43	=43	=43
4C/	-lu-	(8d\L	-lu-	4g\	-lu-	(8ff\L	-lu-
.	.	8c\J)	.	.	.	8ee\J)	.
2C/	-ja	2c\	-ja	2g\	-ja	2ee\	-ja
=44	=44	=44	=44	=44	=44	=44	=44
2F\	al-	2c\	al-	2a\	al-	2dd\	al-
4F\	-le-	4c\	-le-	4a\	-le-	4dd\	-le-
!	!	!	!	!	!	!LO:LB:g=original	!
=45	=45	=45	=45	=45	=45	=45	=45
4F#X\	-lu-	4c\	-lu-	4a\	-lu-	(8dd\L	-lu-
.	.	.	.	.	.	8ee-X\J)	.
2F#\	-ja	2c\	-ja	2a\	-ja	2ee-\	-ja
=46	=46	=46	=46	=46	=46	=46	=46
2G\	al-	2c\	al-	2b-X\	al-	2een\	al-
4G\	-le-	4c\	-le-	4b-\	-le-	4ee\	-le-
!LO:LB:g=original	!	!	!	!LO:LB:g=original	!	!	!
=47	=47	=47	=47	=47	=47	=47	=47
2A\	-lu-	4c\	-lu-	4a\	-lu-	(8ee\L	-lu-
.	.	.	.	.	.	8ff\J)	.
.	.	2c\	-ja	2a\	-ja	2ff\	-ja
4A\	-ja	.	.	.	.	.	.
=48	=48	=48	=48	=48	=48	=48	=48
4A-X\	al-	4c\	al-	4cc\	al-	4ff#X\	al-
4A-\	-le-	4c\	-le-	4cc\	-le-	4ff#\	-le-
4A-\	-lu-	4d\	-lu-	4cc\	-lu-	4ff#\	-lu-
=49	=49	=49	=49	=49	=49	=49	=49
2G\	-ja	2d\	-ja	2bn\	-ja	(4gg\	-ja
.	.	.	.	.	.	4ffn\)	.
4An\	al-	4c\	al-	4cc\	al-	4ee\	al-
=50	=50	=50	=50	=50	=50	=50	=50
(4F\	-le-	2c\	-le-	4a\	-le-	(4ff\	-le-
4G\)	.	.	.	2g\	-lu-	4ee\)	.
4GG/	-lu-	4B\	-lu-	.	.	4dd\	-lu-
=51	=51	=51	=51	=51	=51	=51	=51
!	!	!	!	!LO:TX:t=P:problem=4g dopisane ołówkiem	!	!	!
!	!	!	!	!LO:SIC:v:s=4g	!	!	!
4C/	-ja	2c\	-ja	4a\	-ja	4cc\	-ja
4r	.	.	.	4r	.	4cc\	al-
4r	.	4r	.	4r	.	4cc\	-le-
!	!	!	!	!	!	!LO:LB:g=original	!
=52	=52	=52	=52	=52	=52	=52	=52
2B\	al-	2d\	al-	2g\	al-	(2dd\	-lu-
4B\	-le-	4d\	-le-	4g\	-le-	4gg\)	.
=53	=53	=53	=53	=53	=53	=53	=53
4c\	-lu-	4c\	-lu-	4g\	-lu-	4ee\	-ja
4C/	-ja	4c\	-ja	4g\	-ja	4ee\	al-
4c\	al-	4e\	al-	4g\	al-	4cc\	-le-
=54	=54	=54	=54	=54	=54	=54	=54
2G\	-le-	2d\	-le-	2g\	-le-	(2b\	-lu-
4GG/	-lu-	4B\	-lu-	4f\	-lu-	4dd\)	.
=55	=55	=55	=55	=55	=55	=55	=55
2.C/	-ja.	2c\	-ja.	2e\	-ja.	2cc\	-ja.
.	.	4r	.	4r	.	4r	.
==	==	==	==	==	==	==	==
*-	*-	*-	*-	*-	*-	*-	*-
!!!system-decoration: [(s1,s2,s3,s4)]
!!!RDF**kern: > = above
!!!ENC: Marta Lawrence
!!!END: 2021-02-13
!!!ENC: Andrzej Kubiczek
!!!END: 2021-02-01
!!!YEC: Copyright 2022 Narodowy Instytut Fryderyka Chopina (https://polishscores.org)
!!!YEM: License CC-BY-4.0 (https://creativecommons.org/licenses/by/4.0)
